X:1
T:Title
%%score { 1 | ( 2 3 ) }
L:1/8
Q:1/4=100
M:4/4
K:C
V:1 treble nm="Grand Piano"
V:2 bass 
V:3 bass 
V:1
 [EG]3 [EG] [Ge]2 [Ec]2 | [FB]3 [FB] [CGc]2 [CG]2 | [CFA]2 [FAd]2 [EGc]3 [EGc] | %3
w: J.~E.~Gould * * *|||
 [DFB]2 [DFB]2 [Ec]4 | [EG]3 [EG] [Ge]2 [Ec]2 | [FB]3 [FB] [Gc]2 G2 | A3 A B2 d2 | %7
w: ||||
 [C^FA]3 [CFB] [B,G]4 | f3 g f2 e2 | d3 e [Fd]2 [Ec]2 | [DB]3 [Dc] [CB]2 [CEA]2 | %11
w: ||||
 [B,^FA]3 [CFB] [B,G]4 | [EG]3 [EG] [Ge]2 [Ec]2 | [FB]3 [FB] [Gc]2 G2 | %14
w: |||
[M:19/16] [Af]/-[Af]/-[Af]-<[Af][Ad][cg][cg]/-[cg]/-[cg]/-[cg]/-[cg]/-[cg]-<[cg] | %15
w: |
[M:4/4] [DGB]3 [DFB] [CEc]4 |] %16
w: |
V:2
 [C,C]3 [C,C] [C,C]2 C,2 | [D,G,]3 [D,G,] E,2 E,2 | F,2 F,2 G,3 G, | G,,2 G,,2 [C,C]4 | %4
 [C,C]3 [C,C] [C,C]2 C,2 | [D,G,]3 [D,G,] [E,C]2 [E,C]2 | [^F,CD]3 [F,CD] [G,B,D]2 [D,B,D]2 | %7
 D,3 D, G,,4 | [B,DG]3 [B,DG] [CG]2 [CG]2 | [G,B,F]3 [G,F][K:bass] [C,G,]2 [C,G,]2 | %10
 [E,^G,]3 [E,G,] [A,,A,]2 A,,2 | D,3 D, z2 F2 | [C,C]3 [C,C] [C,C]2 [C,G,]2 | %13
 [D,G,]3 [D,G,] [E,G,]2 [E,C]2 | %14
[M:19/16] [D,A,]/-[D,A,]/-[D,A,]-<[D,A,][F,F][G,E][G,E]/-[G,E]/-[G,E]/-[G,E]/-[G,E]/-[G,E]-<[G,E] | %15
[M:4/4] G,3 G,, C,4 |] %16
V:3
 x8 | x8 | x8 | x8 | x8 | x8 | x8 | x8 | x8 | x4[K:bass] x4 | x8 | z4 G,,4 | x8 | x8 | %14
[M:19/16] x19/2 |[M:4/4] x8 |] %16

